storage/app/icons/phosphoricons/fill/airplane-in-flight-fill.svg

<svg xmlns="http://www.w3.org/2000/svg" fill="currentColor" viewBox="0 0 256 256"><path d="M224 216a8 8 0 0 1-8 8H72a8 8 0 1 1 0-16h144a8 8 0 0 1 8 8M208 96h-60.68l-45.66-45.66A8 8 0 0 0 96 48h-8a16 16 0 0 0-15.17 21.06l9 26.94H59.32L37.66 74.34A8 8 0 0 0 32 72h-8A16 16 0 0 0 8.69 92.6l14.07 46.89A39.75 39.75 0 0 0 61.07 168H240a8 8 0 0 0 8-8v-24a40 40 0 0 0-40-40"/></svg>

<svg xmlns="http://www.w3.org/2000/svg" viewBox="0 0 256 256" fill="currentColor"><path d="M224,216a8,8,0,0,1-8,8H72a8,8,0,1,1,0-16H216A8,8,0,0,1,224,216ZM208,96H147.32L101.66,50.34A8,8,0,0,0,96,48H88A16,16,0,0,0,72.83,69.06l9,26.94H59.32L37.66,74.34A8,8,0,0,0,32,72H24A16,16,0,0,0,8.69,92.6l14.07,46.89A39.75,39.75,0,0,0,61.07,168H240a8,8,0,0,0,8-8V136A40,40,0,0,0,208,96Z"/></svg>
